X:1
T:Title
%%score { ( 1 3 ) | ( 2 4 ) }
L:1/8
M:9/8
K:Eb
V:1 treble nm="Grand Piano"
V:3 treble 
V:2 bass 
V:4 bass 
V:1
 z3 z3[Q:1/4=100] [G,B,][G,B,E][B,DF] | [B,EG]3 [B,EG]3 [A,DF][G,CE][B,DF] | %2
 [B,EG]3 [G,B,E]3 [G,B,E][B,EG][B,FA] | [EGB]3 [EGB]3 [DAc][DGB][DFA] |[M:3/4] [B,EG]6 | %5
[M:3/8] [G,B,][G,B,E][B,DF] |[M:9/8] [B,EG]3 [B,EG]3 [A,DF][G,CE][B,DF] | G3 E3 cde | %8
 [EGB]3 [B,EG]3 [A,DF][B,DG][A,DF] |[M:3/4] [G,E]6 |[M:3/8] GAB | %11
[M:9/8] [Ac]-[EA-c-][EA-c-] [EAc]2 c [ce][Bd][Ac] | [GB]3 .[EG]3 z3 | [FA]6 z3 | [EG]6 z3 | %15
 [Ac]-[EA-c-][EA-c-] [EAc]2 c [ce][Bd][Ac] | [GB]3 [EG]3 z3 | [FA]6 z3 |[M:3/4] E6 |] %19
V:2
 z3 z3 E,E,B,, | E,3 E,3 B,,C,B,, | E,3 E,3 E,E,E, | E,3 E,3 B,,B,,B,, |[M:3/4] E,6 | %5
[M:3/8] E,E,B,, |[M:9/8] E,3 E,3 B,,C,B,, | [E,B,E]3 [E,G,B,]3 [A,E][A,B,E][A,CE] | %8
 E,3 E,3 B,,B,,B,, |[M:3/4] E,6 |[M:3/8][K:treble] EFG | %11
[M:9/8] A,A,A, A,2 [A,EA][K:bass] [A,C][A,D][A,E] | [E,E]E,E, E,E,[K:treble]G GAB, | %13
 B,B,B, B,2 F FG[K:bass]B, | E,E,E, .E,3[K:treble] EFG | %15
 A,A,A, A,2 [A,EA][K:bass] [A,C][A,D][A,E] | [E,E]E,E, E, .E,2[K:treble] GAG | %17
 B,B,[K:bass]B, B,2 B, B,,B,,B,, |[M:3/4] z G, A, G,3 |] %19
V:3
 x9 | x9 | x9 | x9 |[M:3/4] x6 |[M:3/8] x3 |[M:9/8] x9 | x9 | x9 |[M:3/4] x6 |[M:3/8] x3 | %11
[M:9/8] .E3 z3 z3 | z EE B,B,B Bc[EGB] | DDD D2 A AB[DFA] | B,B,B, .B,3 GAB | .E3 z3 z3 | %16
 z EE B, .B,2 BcB | DDD D2 [DFA] [DFA][B,DG][A,DF] |[M:3/4] [G,B,]B, C B,3 |] %19
V:4
 x9 | x9 | x9 | x9 |[M:3/4] x6 |[M:3/8] x3 |[M:9/8] x9 | x9 | x9 |[M:3/4] x6 | %10
[M:3/8][K:treble] x3 |[M:9/8] x6[K:bass] x3 | x5[K:treble] x4 | x8[K:bass] x | x6[K:treble] x3 | %15
 x6[K:bass] x3 | x6[K:treble] x3 | x2[K:bass] x7 |[M:3/4] E,6 |] %19

